svgs/thin/kidneys.svg

<svg xmlns="http://www.w3.org/2000/svg" viewBox="0 0 640 512"><!--! Font Awesome Pro 6.0.0-alpha3 by @fontawesome - https://fontawesome.com License - https://fontawesome.com/license (Commercial License) --><path d="M527.9 24.24C509.6 8.008 486.8 0 464.1 0c-26.48 0-52.85 10.86-71.82 32.24c-35.25 39.5-31.63 100.3 8 135.5c13.11 11.69 20.92 23.53 25.62 34.74L384.1 230.3c-20.08 13.38-32.06 35.78-32.06 59.91V504c0 4.406 3.573 8 7.995 8c4.422 0 8.005-3.594 8.005-8V290.3c0-18.75 9.328-36.19 24.94-46.59l37.69-25.12c4.158 23.5-4.176 41.32-4.629 42.83c-17.5 60.63 27.63 122.6 92.25 122.6c41.75 0 80.13-27.38 92.25-69.5c5.625-19.25 14.63-48 13.38-90.5C621.8 149.1 588.1 77.86 527.9 24.24zM595.8 307.7l-.7051 2.406c-9.817 34.11-41.43 57.93-76.88 57.93c-25.37 0-48.64-11.59-63.83-31.79c-15.32-20.37-20.08-46.03-13.23-69.74c15.49-38.58 4.166-79.95-30.3-110.7c-16.02-14.25-25.51-33.88-26.75-55.28c-1.227-21.29 5.895-41.75 20.08-57.65C419.4 25.79 441.2 16 464.1 16c19.65 0 38.53 7.172 53.17 20.19c56.41 50.2 88.6 117.1 90.65 188.3C609 262.7 601.4 288.7 595.8 307.7zM255.9 230.3L214.2 202.5C218.9 191.2 226.7 179.4 239.9 167.6c39.63-35.38 43-96 7.75-135.5c-18.1-21.28-45.32-32.11-71.74-32.11c-22.77 0-45.6 8.039-63.89 24.36c-59.88 53.5-93.63 125.6-95.88 199.6c-1.25 42 7.5 70.88 12.88 90c12 42.38 50.5 70 92.38 70c64.25 0 109.6-61.5 92.5-122.1C213.2 259.6 205.3 241.8 209.4 218.6L247.1 243.7C262.7 254.1 272 271.5 272 290.3V504c0 4.406 3.578 8 7.1 8c4.422 0 8.001-3.594 8.001-8V290.3C288 266.1 276 243.7 255.9 230.3zM198.5 266.2c6.859 24.29 2.008 49.83-13.31 70.08c-15.24 20.14-38.49 31.7-63.79 31.7c-35.59 0-67.25-24-76.97-58.33L43.68 307.1C38.32 288.1 30.99 262.2 32.11 224.5c2.164-71.11 34.32-137.9 90.54-188.2c14.66-13.09 33.57-20.3 53.24-20.3c22.82 0 44.62 9.758 59.8 26.76c29.34 32.88 26.44 83.53-6.471 112.9C194.7 186.5 183.5 226.8 198.5 266.2z"/></svg>

<svg xmlns="http://www.w3.org/2000/svg" viewBox="0 0 640 512"><!-- Font Awesome Pro 6.0.0-alpha2 by @fontawesome - https://fontawesome.com License - https://fontawesome.com/license (Commercial License) --><path d="M527.881 24.238C509.63 8.008 486.813 0 464.071 0C437.594 0 411.216 10.855 392.253 32.238C357.002 71.738 360.627 132.488 400.253 167.738C413.367 179.43 421.173 191.266 425.873 202.477L384.069 230.344C363.991 243.719 352.006 266.125 352.006 290.25V504C352.006 508.406 355.584 512 360.006 512S368.006 508.406 368.006 504V290.25C368.006 271.5 377.335 254.062 392.944 243.656L430.633 218.531C434.791 242.031 426.457 259.855 426.004 261.363C408.503 321.988 453.629 383.988 518.255 383.988C560.006 383.988 598.382 356.613 610.507 314.488C616.132 295.238 625.132 266.488 623.882 223.988C621.757 149.988 588.132 77.863 527.881 24.238ZM595.837 307.656L595.132 310.062C585.315 344.168 553.701 367.988 518.255 367.988C492.886 367.988 469.62 356.402 454.422 336.195C439.098 315.824 434.344 290.164 441.187 266.453C456.676 227.875 445.354 186.508 410.888 155.785C394.872 141.535 385.374 121.906 384.139 100.508C382.913 79.219 390.034 58.758 404.224 42.855C419.361 25.785 441.174 16 464.071 16C483.718 16 502.603 23.172 517.244 36.191C573.653 86.395 605.845 153.254 607.89 224.457C609.015 262.742 601.398 288.703 595.837 307.656ZM255.942 230.344L214.195 202.516C218.916 191.246 226.72 179.359 239.875 167.613C279.501 132.238 282.876 71.613 247.625 32.113C228.627 10.832 202.302 0.004 175.887 0.004C153.119 0.004 130.285 8.043 111.998 24.363C52.121 77.863 18.371 149.988 16.121 223.988C14.871 265.988 23.621 294.863 28.996 313.988C40.996 356.363 79.497 383.988 121.373 383.988C185.624 383.988 231 322.488 213.874 261.863C213.199 259.613 205.257 241.812 209.415 218.555L247.067 243.656C262.676 254.062 272.005 271.5 272.005 290.25V504C272.005 508.406 275.583 512 280.005 512S288.005 508.406 288.005 504V290.25C288.005 266.125 276.02 243.719 255.942 230.344ZM198.478 266.211C205.337 290.5 200.486 316.043 185.165 336.293C169.922 356.438 146.672 367.988 121.373 367.988C85.778 367.988 54.121 343.988 44.401 309.66L43.678 307.098C38.324 288.145 30.992 262.188 32.113 224.477C34.277 153.363 66.432 86.531 122.652 36.301C137.316 23.215 156.223 16.004 175.887 16.004C198.708 16.004 220.505 25.762 235.687 42.766C265.032 75.648 262.129 126.297 229.217 155.68C194.743 186.469 183.538 226.797 198.478 266.211Z"/></svg>
